shelter/assets/icons/icon-shampoos.svg

<svg fill="none" height="60" viewBox="0 0 60 60" width="60" xmlns="http://www.w3.org/2000/svg"><g fill="#f1cdb3"><path d="m37.1303 17.1814v-5.4423c0-.7203-.584-1.3043-1.3043-1.3043h-.9783v-9.1305c0-.720355-.584-1.3043-1.3043-1.3043h-8.4783c-.7203 0-1.3043.583945-1.3043 1.3043v9.1304h-.9783c-.7203 0-1.3043.584-1.3043 1.3043v5.4423c-4.5805 1.8265-7.8261 6.3066-7.8261 11.5307v29.9836c0 .7203.5839 1.3043 1.3043 1.3043h28.6957c.7204 0 1.3043-.584 1.3043-1.3043v-29.9835c-.0001-5.2242-3.2457-9.7043-7.8261-11.5307zm-10.7609-14.57269h5.8696v7.82609h-5.8696zm-2.2827 10.43469h10.4347v3.2609h-10.4347zm18.2609 44.3479h-26.0869v-28.6792c0-5.4033 4.3958-9.7991 9.799-9.7991h6.4889c5.4033 0 9.799 4.3958 9.799 9.7991z"/><path d="m37.7825 27.3913h-16.9566c-.7203 0-1.3043.5839-1.3043 1.3043v24.1304c0 .7204.584 1.3043 1.3043 1.3043h16.9566c.7203 0 1.3043-.5839 1.3043-1.3043v-8.1973c0-.7203-.584-1.3043-1.3043-1.3043-.7204 0-1.3043.584-1.3043 1.3043v6.893h-14.3479v-21.5217h14.3479v4.1287c0 .7204.5839 1.3043 1.3043 1.3043.7203 0 1.3043-.5839 1.3043-1.3043v-5.433c0-.7205-.584-1.3044-1.3043-1.3044z"/><path d="m37.7824 38.0645c-.7203 0-1.3043.5839-1.3043 1.3043v.1304c0 .7203.584 1.3043 1.3043 1.3043.7204 0 1.3043-.584 1.3043-1.3043v-.1304c0-.7204-.5839-1.3043-1.3043-1.3043z"/><path d="m27.9922 41.1512c-2.1577 0-3.913 1.7554-3.913 3.913 0 2.1577 1.7553 3.9131 3.913 3.9131s3.913-1.7554 3.913-3.9131c0-2.1575-1.7553-3.913-3.913-3.913zm0 5.2175c-.7192 0-1.3043-.5852-1.3043-1.3043 0-.7192.5851-1.3043 1.3043-1.3043s1.3043.5851 1.3043 1.3043c0 .7191-.585 1.3043-1.3043 1.3043z"/><path d="m34.8456 35.9842c0-2.1576-1.7553-3.913-3.913-3.913s-3.913 1.7554-3.913 3.913c0 2.1577 1.7553 3.9131 3.913 3.9131 2.1575.0001 3.913-1.7554 3.913-3.9131zm-3.9131 1.3045c-.7192 0-1.3043-.5852-1.3043-1.3043 0-.7192.5851-1.3043 1.3043-1.3043s1.3043.5851 1.3043 1.3043c0 .7191-.5849 1.3043-1.3043 1.3043z"/></g></svg>

<svg width="60" height="60" viewBox="0 0 60 60" fill="none" xmlns="http://www.w3.org/2000/svg">
<path d="M37.1303 17.1814V11.7391C37.1303 11.0188 36.5463 10.4348 35.826 10.4348H34.8477V1.3043C34.8477 0.583945 34.2637 0 33.5434 0H25.0651C24.3448 0 23.7608 0.583945 23.7608 1.3043V10.4347H22.7825C22.0622 10.4347 21.4782 11.0187 21.4782 11.739V17.1813C16.8977 19.0078 13.6521 23.4879 13.6521 28.712V58.6956C13.6521 59.4159 14.236 59.9999 14.9564 59.9999H43.6521C44.3725 59.9999 44.9564 59.4159 44.9564 58.6956V28.7121C44.9563 23.4879 41.7107 19.0078 37.1303 17.1814ZM26.3694 2.60871H32.239V10.4348H26.3694V2.60871ZM24.0867 13.0434H34.5214V16.3043H24.0867V13.0434ZM42.3476 57.3913H16.2607V28.7121C16.2607 23.3088 20.6565 18.913 26.0597 18.913H32.5486C37.9519 18.913 42.3476 23.3088 42.3476 28.7121V57.3913Z" fill="#F1CDB3"/>
<path d="M37.7825 27.3913H20.8259C20.1056 27.3913 19.5216 27.9752 19.5216 28.6956V52.826C19.5216 53.5464 20.1056 54.1303 20.8259 54.1303H37.7825C38.5028 54.1303 39.0868 53.5464 39.0868 52.826V44.6287C39.0868 43.9084 38.5028 43.3244 37.7825 43.3244C37.0621 43.3244 36.4782 43.9084 36.4782 44.6287V51.5217H22.1303V30H36.4782V34.1287C36.4782 34.8491 37.0621 35.433 37.7825 35.433C38.5028 35.433 39.0868 34.8491 39.0868 34.1287V28.6957C39.0868 27.9752 38.5028 27.3913 37.7825 27.3913Z" fill="#F1CDB3"/>
<path d="M37.7824 38.0645C37.0621 38.0645 36.4781 38.6484 36.4781 39.3688V39.4992C36.4781 40.2195 37.0621 40.8035 37.7824 40.8035C38.5028 40.8035 39.0867 40.2195 39.0867 39.4992V39.3688C39.0867 38.6484 38.5028 38.0645 37.7824 38.0645Z" fill="#F1CDB3"/>
<path d="M27.9922 41.1512C25.8345 41.1512 24.0792 42.9066 24.0792 45.0642C24.0792 47.2219 25.8345 48.9773 27.9922 48.9773C30.1499 48.9773 31.9052 47.2219 31.9052 45.0642C31.9052 42.9067 30.1499 41.1512 27.9922 41.1512ZM27.9922 46.3687C27.273 46.3687 26.6879 45.7835 26.6879 45.0644C26.6879 44.3452 27.273 43.7601 27.9922 43.7601C28.7114 43.7601 29.2965 44.3452 29.2965 45.0644C29.2965 45.7835 28.7115 46.3687 27.9922 46.3687Z" fill="#F1CDB3"/>
<path d="M34.8456 35.9842C34.8456 33.8266 33.0903 32.0712 30.9326 32.0712C28.7749 32.0712 27.0196 33.8266 27.0196 35.9842C27.0196 38.1419 28.7749 39.8973 30.9326 39.8973C33.0901 39.8974 34.8456 38.1419 34.8456 35.9842ZM30.9325 37.2887C30.2133 37.2887 29.6282 36.7035 29.6282 35.9844C29.6282 35.2652 30.2133 34.6801 30.9325 34.6801C31.6517 34.6801 32.2368 35.2652 32.2368 35.9844C32.2368 36.7035 31.6519 37.2887 30.9325 37.2887Z" fill="#F1CDB3"/>
</svg>
